X: 35351
T: Rosie Clayton's
R: hornpipe
M: 4/4
K: Gmajor
G>AB>d B>A G2|G>AB>B- B>AG>B|B>AG>E D>E D2|D>EG>A- A>B G2|
G>AB>d B>A G2|G>AB>B- B>AG>B|B>AG>E D>E G2|D>EG>G B2 ~ ?
|:G>AB>d g2 g>g|e>de>g g2 e>d|B>de>d g2 g>g|e>de>d B>AD>E:|

